assets/media/app/default.svg

<?xml version="1.0" encoding="UTF-8" standalone="no"?>
<svg
   width="87"
   height="16"
   viewBox="0 0 87 16"
   fill="none"
   version="1.1"
   id="svg3"
   sodipodi:docname="default.svg"
   inkscape:version="1.3.2 (091e20e, 2023-11-25, custom)"
   inkscape:export-filename="default3.svg"
   inkscape:export-xdpi="96"
   inkscape:export-ydpi="96"
   xmlns:inkscape="http://www.inkscape.org/namespaces/inkscape"
   xmlns:sodipodi="http://sodipodi.sourceforge.net/DTD/sodipodi-0.dtd"
   xmlns="http://www.w3.org/2000/svg"
   xmlns:svg="http://www.w3.org/2000/svg">
  <sodipodi:namedview
     id="namedview3"
     pagecolor="#ffffff"
     bordercolor="#000000"
     borderopacity="0.25"
     inkscape:showpageshadow="2"
     inkscape:pageopacity="0.0"
     inkscape:pagecheckerboard="0"
     inkscape:deskcolor="#d1d1d1"
     inkscape:zoom="3.3317497"
     inkscape:cx="34.516399"
     inkscape:cy="4.0519251"
     inkscape:window-width="1600"
     inkscape:window-height="829"
     inkscape:window-x="-8"
     inkscape:window-y="-8"
     inkscape:window-maximized="1"
     inkscape:current-layer="svg3" />
  <g
     clip-path="url(#clip0)"
     id="g3"
     transform="matrix(0.54972348,0,0,0.54972348,0.14178935,0.3029946)">
    <path
       d="M 25.402,1.37404 C 25.5367,1.22411 25.6115,1.0288 25.6118,0.826128 25.6118,0.608229 25.5268,0.39915 25.3752,0.24442 25.2236,0.0896895 25.0178,0.00183968 24.8025,0 h -0.01 L 11.277,0.00697453 H 11.2671 C 11.0753,0.00694157 10.8855,0.0470626 10.7097,0.124815 10.534,0.202568 10.376,0.316273 10.2457,0.458788 9.3537,1.37016 7.06896,3.67108 2.94663,7.6196 -2.56614,12.8995 1.34716,18.112 1.34716,18.112 l 5.04189,5.1033 C 5.2061,21.9358 6.6578,20.2487 6.6578,20.2487 L 25.3499,1.43371 c 0.0138,-0.01317 0.0276,-0.02712 0.0406,-0.04107 l 0.013,-0.01395 z"
       fill="#0094ff"
       id="path2" />
    <path
       d="M 26.0333,26.6213 26.0287,26.6166 15.0078,15.4755 c -0.078,-0.0778 -0.1705,-0.1392 -0.272,-0.1807 -0.1016,-0.0415 -0.2102,-0.0623 -0.3198,-0.0612 -0.1095,0.0012 -0.2177,0.0242 -0.3183,0.0679 -0.1007,0.0436 -0.1919,0.107 -0.2683,0.1864 L 8.00119,21.3561 C 6.5227,23.1525 7.4101,24.0778 7.4101,24.0778 l 3.4332,3.5998 c 0.0878,0.1006 0.1957,0.181 0.3167,0.236 0.1209,0.0549 0.2521,0.083 0.3847,0.0825 h 13.8608 c 0.0092,0 0.0176,0 0.0275,0 0.157,-10e-4 0.3103,-0.0478 0.4415,-0.1348 0.1312,-0.0871 0.2348,-0.2107 0.2982,-0.356 0.0635,-0.1453 0.0841,-0.306 0.0593,-0.4629 -0.0247,-0.1568 -0.0937,-0.3031 -0.1987,-0.4211 z"
       fill="#3f4254"
       id="path3" />
  </g>
  <defs
     id="defs3">
    <clipPath
       id="clip0">
      <rect
         width="26.25"
         height="28"
         fill="#ffffff"
         id="rect3"
         x="0"
         y="0" />
    </clipPath>
  </defs>
  <text
     xml:space="preserve"
     style="font-size:17.3333px;fill:#3f4254;fill-opacity:1"
     x="15.415691"
     y="14.409698"
     id="text3"><tspan
       id="tspan3"
       x="15.415691"
       y="14.409698"
       style="font-style:normal;font-variant:normal;font-weight:bold;font-stretch:normal;font-size:17.3333px;font-family:Calibri;-inkscape-font-specification:'Calibri Bold';fill:#3f4254;fill-opacity:1"
       sodipodi:role="line">admin<tspan
   style="font-style:normal;font-variant:normal;font-weight:300;font-stretch:normal;font-size:17.3333px;font-family:Calibri;-inkscape-font-specification:'Calibri Light'"
   id="tspan1">Obr</tspan></tspan></text>
</svg>

<?xml version="1.0" encoding="UTF-8" standalone="no"?>
<svg
   width="144"
   height="28"
   viewBox="0 0 144 28"
   fill="none"
   version="1.1"
   id="svg3"
   sodipodi:docname="default.svg"
   inkscape:version="1.3.2 (091e20e, 2023-11-25, custom)"
   xmlns:inkscape="http://www.inkscape.org/namespaces/inkscape"
   xmlns:sodipodi="http://sodipodi.sourceforge.net/DTD/sodipodi-0.dtd"
   xmlns="http://www.w3.org/2000/svg"
   xmlns:svg="http://www.w3.org/2000/svg">
  <sodipodi:namedview
     id="namedview3"
     pagecolor="#ffffff"
     bordercolor="#000000"
     borderopacity="0.25"
     inkscape:showpageshadow="2"
     inkscape:pageopacity="0.0"
     inkscape:pagecheckerboard="0"
     inkscape:deskcolor="#d1d1d1"
     inkscape:zoom="6.6634993"
     inkscape:cx="65.20598"
     inkscape:cy="42.095"
     inkscape:window-width="1920"
     inkscape:window-height="991"
     inkscape:window-x="-9"
     inkscape:window-y="-9"
     inkscape:window-maximized="1"
     inkscape:current-layer="svg3" />
  <g
     clip-path="url(#clip0)"
     id="g3">
    <path
       d="M25.402 1.37404C25.5367 1.22411 25.6115 1.0288 25.6118 0.826128C25.6118 0.608229 25.5268 0.39915 25.3752 0.24442C25.2236 0.0896895 25.0178 0.00183968 24.8025 0H24.7925L11.277 0.00697453H11.2671C11.0753 0.00694157 10.8855 0.0470626 10.7097 0.124815C10.534 0.202568 10.376 0.316273 10.2457 0.458788C9.3537 1.37016 7.06896 3.67108 2.94663 7.6196C-2.56614 12.8995 1.34716 18.112 1.34716 18.112L6.38905 23.2153C5.2061 21.9358 6.6578 20.2487 6.6578 20.2487L25.3499 1.43371C25.3637 1.42054 25.3775 1.40659 25.3905 1.39264L25.4035 1.37869L25.402 1.37404Z"
       fill="#0094FF"
       id="path2" />
    <path
       d="M26.0333 26.6213L26.0287 26.6166L15.0078 15.4755C14.9298 15.3977 14.8373 15.3363 14.7358 15.2948C14.6342 15.2533 14.5256 15.2325 14.416 15.2336C14.3065 15.2348 14.1983 15.2578 14.0977 15.3015C13.997 15.3451 13.9058 15.4085 13.8294 15.4879L8.00119 21.3561C6.5227 23.1525 7.4101 24.0778 7.4101 24.0778L10.8433 27.6776C10.9311 27.7782 11.039 27.8586 11.16 27.9136C11.2809 27.9685 11.4121 27.9966 11.5447 27.9961H25.4055C25.4147 27.9961 25.4231 27.9961 25.433 27.9961C25.59 27.9951 25.7433 27.9483 25.8745 27.8613C26.0057 27.7742 26.1093 27.6506 26.1727 27.5053C26.2362 27.36 26.2568 27.1993 26.232 27.0424C26.2073 26.8856 26.1383 26.7393 26.0333 26.6213Z"
       fill="#3F4254"
       id="path3" />
  </g>
  <defs
     id="defs3">
    <clipPath
       id="clip0">
      <rect
         width="26.25"
         height="28"
         fill="white"
         id="rect3" />
    </clipPath>
  </defs>
  <text
     xml:space="preserve"
     style="font-size:20px;fill:#3f4254;fill-opacity:1"
     x="39.367752"
     y="19.809412"
     id="text3"><tspan
       id="tspan3"
       x="39.367752"
       y="19.809412"
       style="font-style:normal;font-variant:normal;font-weight:bold;font-stretch:normal;font-size:20px;font-family:Calibri;-inkscape-font-specification:'Calibri Bold';fill:#3f4254;fill-opacity:1"
       sodipodi:role="line">Admin<tspan
   style="font-style:normal;font-variant:normal;font-weight:300;font-stretch:normal;font-family:Calibri;-inkscape-font-specification:'Calibri Light'"
   id="tspan1">Obr</tspan></tspan></text>
</svg>
